site/assets/images/404/tri.svg

<?xml version="1.0" encoding="UTF-8" standalone="no"?>
<svg width="144px" height="165px" viewBox="0 0 144 165" version="1.1" xmlns="http://www.w3.org/2000/svg" xmlns:xlink="http://www.w3.org/1999/xlink" xmlns:sketch="http://www.bohemiancoding.com/sketch/ns">
    <!-- Generator: Sketch 3.4.3 (16044) - http://www.bohemiancoding.com/sketch -->
    <title>tri</title>
    <desc>Created with Sketch.</desc>
    <defs></defs>
    <g id="Page-1" stroke="none" stroke-width="1" fill="none" fill-rule="evenodd" sketch:type="MSPage">
        <g id="tri" sketch:type="MSLayerGroup">
            <path d="M140.887543,0.9862875 L86.2815086,81.4609125 L140.730377,164.337525 C140.730377,164.337525 143.633006,163.063312 143.705006,159.862725 L143.709943,5.3942625 C143.709943,5.3942625 143.833783,2.6668125 140.887543,0.9862875" id="Fill-1" fill="#56B786" sketch:type="MSShapeGroup"></path>
            <path d="M143.230629,127.535513 C141.131931,130.3335 139.698926,128.083725 139.698926,128.083725 L97.9611429,64.2423375 L120.77568,30.535725 C120.77568,30.535725 138.500434,60.19365 143.230629,67.837275" id="Fill-2" fill="#48916C" sketch:type="MSShapeGroup"></path>
            <path d="M136.161874,0.9862875 L2.64301714,74.4566625 C2.64301714,74.4566625 0.0349714286,75.9457875 0.139062857,78.913725 L86.2806857,81.4609125 L140.887543,0.9862875 C140.887543,0.9862875 138.867429,-0.3205125 136.161874,0.9862875" id="Fill-3" fill="#9CE8BC" sketch:type="MSShapeGroup"></path>
            <path d="M82.61856,30.9082125 C98.9987657,30.8801625 120.757989,30.5415 120.757989,30.5415 L97.9496229,64.2530625 L42.7585371,62.4454875 C42.7585371,62.4454875 40.1504914,61.90635 42.0089143,58.942125 C42.7108114,57.8213625 45.2962286,54.101025 48.3366857,49.7718375 L82.61856,30.9082125" id="Fill-4" fill="#74D1A0" sketch:type="MSShapeGroup"></path>
            <path d="M140.730377,164.337525 L86.2815086,81.4609125 L0.139062857,78.913725 C0.139062857,78.913725 -0.0300342857,81.1251375 2.016,82.966125 L136.173394,164.294625 C136.173394,164.294625 138.224366,165.465712 140.730377,164.337525" id="Fill-5" fill="#48916C" sketch:type="MSShapeGroup"></path>
            <path d="M143.711177,126.778163 C141.61248,129.57615 140.179474,127.326787 140.179474,127.326787 L98.44128,63.4854 L121.256229,29.778375 C121.256229,29.778375 138.980983,59.4367125 143.711177,67.0803375" id="Fill-6" fill="#D79245" sketch:type="MSShapeGroup"></path>
            <path d="M83.0982857,30.1855125 C99.4784914,30.1574625 121.237714,29.8192125 121.237714,29.8192125 L98.4293486,63.5303625 L43.2382629,61.7227875 C43.2382629,61.7227875 40.6302171,61.18365 42.48864,58.219425 C43.1909486,57.0986625 45.7759543,53.378325 48.8164114,49.0491375 L83.0982857,30.1855125" id="Fill-7" fill="#F8CDA1" sketch:type="MSShapeGroup"></path>
            <path d="M100.532571,60.489 L70.8887314,59.384325 C70.8887314,59.384325 69.2183314,59.22675 70.1781943,57.2418 C71.1985371,55.13145 87.63264,34.1925375 87.63264,34.1925375 C87.63264,34.1925375 88.4209371,32.9373 90.1135543,32.956275 L119.125029,32.956275 L100.532571,60.489" id="Fill-8" fill="#FFF3EC" sketch:type="MSShapeGroup"></path>
            <path d="M100.532571,60.489 L72.5916343,59.44455 C72.5916343,59.44455 70.9216457,59.2865625 71.8815086,57.3016125 C72.90144,55.1912625 89.3956114,34.192125 89.3956114,34.192125 C89.3956114,34.192125 90.2229943,32.9525625 91.8765257,32.9558625 L119.125029,32.9558625 L100.532571,60.489" id="Fill-9" fill="#FCE4D2" sketch:type="MSShapeGroup"></path>
            <path d="M100.485257,60.501375 L120.827931,92.610375 C120.827931,92.610375 121.591954,94.10775 123.075977,92.4796125 C124.654217,90.749175 138.930789,68.8045875 138.930789,68.8045875 C138.930377,68.8045875 139.772983,67.5753375 139.158309,66.0358875 L119.124617,32.9995875 L100.485257,60.501375" id="Fill-10" fill="#BA7749" sketch:type="MSShapeGroup"></path>
            <path d="M100.485257,60.501375 L120.223543,91.5853125 C120.223543,91.5853125 120.987566,93.0826875 122.472,91.45455 C124.05024,89.7241125 138.3264,67.779525 138.3264,67.779525 C138.3264,67.779525 139.169006,66.550275 138.554331,65.0112375 L119.125029,32.956275 L100.485257,60.501375" id="Fill-11" fill="#F8CDA1" sketch:type="MSShapeGroup"></path>
            <path d="M52.8792686,49.2525 C53.9004343,49.311075 54.6899657,50.02635 54.6434743,50.850525 C54.5969829,51.6751125 53.7317486,52.29675 52.7105829,52.2385875 C51.6898286,52.180425 50.9002971,51.46515 50.9467886,50.640975 C50.9928686,49.8163875 51.8589257,49.19475 52.8792686,49.2525" id="Fill-12" fill="#EDB583" sketch:type="MSShapeGroup"></path>
            <path d="M57.1992686,54.80805 C58.2204343,54.8662125 59.0099657,55.5814875 58.9634743,56.406075 C58.9169829,57.2306625 58.0517486,57.8518875 57.0305829,57.793725 C56.0098286,57.735975 55.2202971,57.0202875 55.2667886,56.1961125 C55.3128686,55.371525 56.1789257,54.7498875 57.1992686,54.80805" id="Fill-13" fill="#EDB583" sketch:type="MSShapeGroup"></path>
            <path d="M63.26784,45.1815375 C64.2890057,45.2397 65.0785371,45.9553875 65.0320457,46.7795625 C64.9855543,47.60415 64.12032,48.2257875 63.0991543,48.167625 C62.0784,48.1094625 61.2888686,47.3941875 61.33536,46.5696 C61.38144,45.7450125 62.2474971,45.1237875 63.26784,45.1815375" id="Fill-14" fill="#EDB583" sketch:type="MSShapeGroup"></path>
            <path d="M68.73408,38.0881875 C69.00768,38.3678625 69.1632,38.72385 69.1422171,39.1029375 C69.0953143,39.927525 68.23008,40.5491625 67.2089143,40.491 C66.5728457,40.4551125 66.0264686,40.163475 65.7166629,39.7497375" id="Fill-15" fill="#EDB583" sketch:type="MSShapeGroup"></path>
            <path d="M67.1422629,51.1731 C68.1634286,51.2312625 68.95296,51.94695 68.9064686,52.771125 C68.8599771,53.5957125 67.9947429,54.2169375 66.9735771,54.1591875 C65.9528229,54.101025 65.1632914,53.3853375 65.2097829,52.5611625 C65.2558629,51.736575 66.12192,51.11535 67.1422629,51.1731" id="Fill-16" fill="#EDB583" sketch:type="MSShapeGroup"></path>
            <path d="M72.9364114,42.6067125 C73.9575771,42.664875 74.7471086,43.3805625 74.7006171,44.2047375 C74.6541257,45.029325 73.7888914,45.65055 72.7677257,45.5928 C71.7469714,45.5346375 70.95744,44.81895 71.0039314,43.994775 C71.0500114,43.1701875 71.9160686,42.5489625 72.9364114,42.6067125" id="Fill-17" fill="#EDB583" sketch:type="MSShapeGroup"></path>
            <path d="M77.9266286,35.0818875 C78.9477943,35.14005 79.7373257,35.855325 79.6908343,36.6799125 C79.6443429,37.5045 78.7791086,38.125725 77.7579429,38.067975 C76.7371886,38.0098125 75.9476571,37.294125 75.9941486,36.46995 C76.0402286,35.6453625 76.9062857,35.0241375 77.9266286,35.0818875" id="Fill-18" fill="#EDB583" sketch:type="MSShapeGroup"></path>
            <path d="M142.604023,108.925162 C143.235566,109.7316 143.221166,110.798325 142.573989,111.308587 C141.925989,111.818437 140.888366,111.57795 140.257234,110.771512 C139.626103,109.965075 139.63968,108.897937 140.28768,108.3885 C140.93568,107.878237 141.972891,108.119137 142.604023,108.925162" id="Fill-19" fill="#BC7835" sketch:type="MSShapeGroup"></path>
            <path d="M131.842697,93.803325 C132.473829,94.6097625 132.45984,95.6764875 131.812663,96.18675 C131.164663,96.6966 130.12704,96.4561125 129.495909,95.649675 C128.864777,94.8432375 128.878354,93.7761 129.526354,93.2666625 C130.173943,92.7564 131.211566,92.9973 131.842697,93.803325" id="Fill-20" fill="#BC7835" sketch:type="MSShapeGroup"></path>
            <path d="M137.486263,84.934575 C138.117394,85.7410125 138.103406,86.8077375 137.456229,87.318 C136.807817,87.82785 135.770606,87.5873625 135.139474,86.780925 C134.508343,85.9744875 134.52192,84.90735 135.16992,84.3979125 C135.817509,83.88765 136.855131,84.12855 137.486263,84.934575" id="Fill-21" fill="#BC7835" sketch:type="MSShapeGroup"></path>
            <path d="M143.246263,77.40645 C143.877394,78.2128875 143.863406,79.2796125 143.216229,79.789875 C142.567817,80.299725 141.530606,80.0592375 140.899474,79.2528 C140.268343,78.4463625 140.28192,77.379225 140.92992,76.8697875 C141.577509,76.359525 142.615131,76.600425 143.246263,77.40645" id="Fill-22" fill="#BC7835" sketch:type="MSShapeGroup"></path>
            <path d="M140.966126,95.530875 C141.597257,96.3373125 141.583269,97.40445 140.936091,97.9147125 C140.28768,98.42415 139.250469,98.1836625 138.619337,97.377225 C137.988206,96.5707875 138.001783,95.50365 138.649783,94.9942125 C139.297371,94.48395 140.334994,94.72485 140.966126,95.530875" id="Fill-23" fill="#BC7835" sketch:type="MSShapeGroup"></path>
            <path d="M133.481006,104.36085 C134.112137,105.167288 134.098149,106.234013 133.45056,106.744275 C132.80256,107.254125 131.765349,107.013638 131.133806,106.2072 C130.502674,105.400763 130.516663,104.333625 131.164663,103.823775 C131.812251,103.313513 132.849463,103.554413 133.481006,104.36085" id="Fill-24" fill="#BC7835" sketch:type="MSShapeGroup"></path>
            <path d="M110.782491,29.778375 L117.365349,23.4650625 M102.142491,29.778375 L98.44128,26.621925" id="Stroke-25" stroke="#4A4E84" sketch:type="MSShapeGroup"></path>
            <path d="M75.3930514,62.7759 L59.93856,67.8013875 C59.5575771,67.9160625 59.1560229,67.698675 59.0424686,67.3162875 C58.9280914,66.93555 59.1440914,66.532125 59.5250743,66.4186875 L71.1536914,62.6373" id="Fill-26" fill="#56B786" sketch:type="MSShapeGroup"></path>
            <path d="M83.71008,63.04815 L84.2733257,68.0332125 C84.3095314,68.43045 84.0170057,68.7814875 83.6203886,68.8169625 C83.2250057,68.8532625 82.8744686,68.5603875 82.8394971,68.1635625 L82.25568,63.0007125" id="Fill-27" fill="#56B786" sketch:type="MSShapeGroup"></path>
            <path d="M100.732114,30.073725 L98.1615086,27.432075 C97.8903771,27.14085 97.9060114,26.682975 98.1973029,26.41155 C98.4885943,26.140125 98.9432229,26.1562125 99.2143543,26.447025 L102.72384,30.053925" id="Fill-28" fill="#56B786" sketch:type="MSShapeGroup"></path>
            <path d="M111.641966,29.9508 L117.932297,23.8816875 C118.224411,23.6119125 118.242926,23.1556875 117.974263,22.8619875 C117.7056,22.567875 117.248914,22.5493125 116.956389,22.8190875 L109.538743,29.9772" id="Fill-29" fill="#56B786" sketch:type="MSShapeGroup"></path>
            <path d="M59.6674286,66.433125 C60.0636343,66.39765 60.4133486,66.6901125 60.4495543,67.0869375 L60.8309486,71.9973375 C60.8671543,72.3941625 60.5746286,72.7452 60.1784229,72.780675 C59.78304,72.8173875 59.4320914,72.5245125 59.39712,72.1276875 L59.0149029,67.2172875 C58.9786971,66.8204625 59.2712229,66.4686 59.6674286,66.433125" id="Fill-30" fill="#56B786" sketch:type="MSShapeGroup"></path>
            <path d="M110.702263,82.2393 L110.56032,93.42465 C110.54592,93.823125 110.212251,94.134975 109.8144,94.120125 C109.417371,94.106925 109.10592,93.7723875 109.120731,93.3739125 L109.289829,80.0790375" id="Fill-31" fill="#48916C" sketch:type="MSShapeGroup"></path>
            <path d="M130.94496,45.9562125 L136.581943,45.8865 C136.978971,45.8902125 137.299474,46.217325 137.294537,46.6162125 C137.2896,47.0146875 136.964571,47.334375 136.567543,47.33025 L131.805669,47.388825" id="Fill-32" fill="#48916C" sketch:type="MSShapeGroup"></path>
        </g>
    </g>
</svg>

<svg width="144" height="165" xmlns="http://www.w3.org/2000/svg"><g fill="none" fill-rule="evenodd"><path d="M140.888.986L86.282 81.46l54.448 82.878s2.903-1.275 2.975-4.475l.005-154.47s.124-2.726-2.822-4.407" fill="#56B786"/><path d="M143.23 127.536c-2.098 2.797-3.53.548-3.53.548L97.96 64.242l22.816-33.706s17.724 29.658 22.455 37.3" fill="#48916C"/><path d="M136.162.986L2.642 74.456S.036 75.947.14 78.915l86.14 2.547L140.89.987s-2.02-1.307-4.726 0" fill="#9CE8BC"/><path d="M82.62 30.908c16.38-.028 38.138-.367 38.138-.367L97.95 64.255l-55.19-1.808s-2.61-.54-.75-3.503c.7-1.12 3.286-4.84 6.327-9.17L82.62 30.908" fill="#74D1A0"/><path d="M140.73 164.338L86.282 81.46.14 78.915s-.17 2.21 1.876 4.052l134.157 81.33s2.05 1.17 4.557.042" fill="#48916C"/><path d="M143.71 126.778c-2.098 2.798-3.53.55-3.53.55L98.44 63.484l22.816-33.707s17.725 29.66 22.455 37.302" fill="#D79245"/><path d="M83.098 30.186c16.38-.03 38.14-.367 38.14-.367l-22.81 33.71-55.19-1.807s-2.608-.54-.75-3.504c.703-1.12 3.288-4.842 6.328-9.17l34.282-18.864" fill="#F8CDA1"/><path d="M100.533 60.49L70.89 59.383s-1.672-.157-.712-2.142c1.02-2.11 17.455-23.05 17.455-23.05s.788-1.255 2.48-1.236h29.012L100.533 60.49" fill="#FFF3EC"/><path d="M100.533 60.49l-27.94-1.045s-1.67-.158-.71-2.143c1.018-2.11 17.513-23.11 17.513-23.11s.827-1.24 2.48-1.236h27.25L100.532 60.49" fill="#FCE4D2"/><path d="M100.485 60.5l20.343 32.11s.764 1.498 2.248-.13c1.578-1.73 15.855-23.675 15.855-23.675s.843-1.23.228-2.77L119.125 33l-18.64 27.5" fill="#BA7749"/><path d="M100.485 60.5l19.74 31.085s.763 1.498 2.247-.13c1.578-1.73 15.854-23.675 15.854-23.675s.843-1.23.228-2.77l-19.43-32.054-18.64 27.545" fill="#F8CDA1"/><path d="M52.88 49.252c1.02.06 1.81.774 1.763 1.6-.046.823-.91 1.445-1.932 1.387-1.02-.06-1.81-.775-1.763-1.6.046-.824.912-1.445 1.932-1.388M57.2 54.808c1.02.058 1.81.773 1.763 1.598-.046.825-.91 1.446-1.932 1.388-1.02-.058-1.81-.774-1.763-1.598.046-.824.912-1.446 1.932-1.388M63.268 45.182c1.02.058 1.81.773 1.764 1.598-.046.824-.912 1.446-1.933 1.388-1.022-.06-1.81-.774-1.765-1.598.046-.825.912-1.446 1.933-1.388M68.734 38.088c.274.28.43.636.408 1.015-.047.825-.912 1.446-1.933 1.388-.637-.035-1.184-.327-1.493-.74M67.142 51.173c1.02.058 1.81.774 1.764 1.598-.046.826-.91 1.447-1.932 1.39-1.02-.06-1.81-.775-1.764-1.6.046-.823.912-1.445 1.932-1.387M72.936 42.607c1.022.058 1.81.774 1.765 1.598-.046.824-.91 1.446-1.932 1.388-1.02-.058-1.81-.774-1.764-1.598.046-.825.912-1.446 1.932-1.388M77.927 35.082c1.02.058 1.81.773 1.764 1.598-.046.825-.91 1.446-1.932 1.388-1.02-.058-1.81-.774-1.764-1.598.046-.825.912-1.446 1.933-1.388" fill="#EDB583"/><path d="M142.604 108.925c.632.807.617 1.873-.03 2.384-.648.508-1.686.268-2.317-.538-.63-.807-.617-1.874.03-2.384.65-.51 1.686-.27 2.317.537M131.843 93.803c.63.807.617 1.873-.03 2.384-.648.51-1.686.27-2.317-.537-.63-.807-.618-1.874.03-2.383.648-.51 1.686-.27 2.317.536M137.486 84.935c.63.806.617 1.873-.03 2.383-.648.51-1.685.27-2.317-.537-.632-.806-.618-1.873.03-2.382.648-.51 1.685-.27 2.316.537M143.246 77.406c.63.807.617 1.874-.03 2.384-.648.51-1.685.27-2.317-.537-.632-.807-.618-1.874.03-2.383.648-.51 1.685-.27 2.316.536M140.966 95.53c.63.807.617 1.874-.03 2.385-.648.51-1.686.27-2.317-.538-.632-.806-.618-1.873.03-2.383.647-.51 1.685-.27 2.316.537M133.48 104.36c.632.807.618 1.874-.03 2.384-.647.51-1.685.27-2.316-.537-.63-.806-.617-1.873.03-2.383.648-.51 1.685-.27 2.317.537" fill="#BC7835"/><path d="M110.782 29.778l6.583-6.313m-15.223 6.313l-3.7-3.156" stroke="#4A4E84"/><path d="M75.393 62.776L59.94 67.8c-.382.116-.784-.1-.898-.484-.114-.38.102-.784.483-.897l11.63-3.783M83.71 63.048l.563 4.985c.037.397-.256.748-.653.784-.395.036-.746-.257-.78-.653L82.255 63M100.732 30.074l-2.57-2.642c-.272-.29-.256-.75.035-1.02.292-.272.746-.256 1.017.035l3.51 3.607M111.642 29.95l6.29-6.068c.292-.27.31-.726.042-1.02-.268-.294-.725-.313-1.018-.043l-7.417 7.157" fill="#56B786"/><path d="M59.667 66.433c.397-.035.746.257.783.654l.38 4.91c.037.397-.255.748-.652.784-.395.037-.746-.255-.78-.652l-.383-4.91c-.036-.398.256-.75.652-.785" fill="#56B786"/><path d="M110.702 82.24l-.142 11.185c-.014.398-.348.71-.746.695-.397-.013-.708-.348-.693-.746l.17-13.295M130.945 45.956l5.637-.07c.397.004.717.33.713.73-.005.4-.33.718-.727.714l-4.762.06" fill="#48916C"/></g></svg>
